icons/hospital.svg

<svg xmlns="http://www.w3.org/2000/svg" width="24" height="24" viewBox="0 0 24 24">
    <path fill="#3A3A47" fill-rule="evenodd" d="M16 2c1.273 0 1.938.607 1.996 1.822L18 4v2h2c1.054 0 1.918.816 1.995 1.85L22 8v12c0 1.333-.667 2-2 2h-4c-1.273 0-1.938-.607-1.996-1.822L14 20v-5h-4v5c0 1.333-.667 2-2 2H4c-1.273 0-1.938-.607-1.996-1.822L2 20V8c0-1.054.816-1.918 1.85-1.995L4 6h2V4c0-1.273.607-1.938 1.822-1.996L8 2h8zM6.504 17H5.5c-.667 0-1 .333-1 1v1c0 .667.333 1 1 1h1c.667 0 1-.334 1-1.001V18c.004-.667-.327-1-.996-1zm12 0H17.5c-.667 0-1 .333-1 1v1c0 .667.333 1 1 1h1c.667 0 1-.334 1-1.001V18c.004-.667-.327-1-.996-1zm-12-5H5.5c-.667 0-1 .333-1 1v1c0 .667.333 1 1 1h1c.667 0 1-.334 1-1.001V13c.004-.667-.327-1-.996-1zm12 0H17.5c-.667 0-1 .333-1 1v1c0 .667.333 1 1 1h1c.667 0 1-.334 1-1.001V13c.004-.667-.327-1-.996-1zM12 4c-.619 0-.95.287-.995.862L11 5v2H9c-.667.002-1 .335-1 .998 0 .616.287.948.862.996L9 9h2v2c.006.663.341.997 1.005 1 .616.003.946-.284.99-.862L13 11V9h2c.667-.005 1-.338 1-1 0-.615-.288-.946-.862-.994L15 7h-2V5c0-.667-.333-1-1-1z"/>
</svg>

<svg width="24" height="24" viewBox="0 0 24 24" fill="none" xmlns="http://www.w3.org/2000/svg">
<path d="M18 6H20C20.5304 6 21.0391 6.21071 21.4142 6.58579C21.7893 6.96086 22 7.46957 22 8V20C22 21.333 21.333 22 20 22H16C14.667 22 14 21.333 14 20V15H10V20C10 21.333 9.333 22 8 22H4C2.667 22 2 21.333 2 20V8C2 7.46957 2.21071 6.96086 2.58579 6.58579C2.96086 6.21071 3.46957 6 4 6H6V4C6 2.667 6.667 2 8 2H16C17.333 2 18 2.667 18 4V6ZM15 9C15.667 8.995 16 8.662 16 8C16 7.338 15.666 7.005 15 7H13V5C13 4.333 12.667 4 12 4C11.333 4 11 4.333 11 5V7H9C8.333 7.002 8 7.335 8 7.998C8 8.661 8.333 8.995 9 9H11V11C11.006 11.663 11.341 11.997 12.005 12C12.668 12.003 13 11.67 13 11V9H15ZM5.5 15H6.5C7.167 15 7.5 14.666 7.5 13.999V13C7.504 12.333 7.173 12 6.504 12H5.5C4.833 12 4.5 12.333 4.5 13V14C4.5 14.667 4.833 15 5.5 15ZM5.5 20H6.5C7.167 20 7.5 19.666 7.5 18.999V18C7.504 17.333 7.173 17 6.504 17H5.5C4.833 17 4.5 17.333 4.5 18V19C4.5 19.667 4.833 20 5.5 20ZM17.5 15H18.5C19.167 15 19.5 14.666 19.5 13.999V13C19.504 12.333 19.173 12 18.504 12H17.5C16.833 12 16.5 12.333 16.5 13V14C16.5 14.667 16.833 15 17.5 15ZM17.5 20H18.5C19.167 20 19.5 19.666 19.5 18.999V18C19.504 17.333 19.173 17 18.504 17H17.5C16.833 17 16.5 17.333 16.5 18V19C16.5 19.667 16.833 20 17.5 20Z" fill="#3A3A47"/>
</svg>
